X: 5547
T: Burren, The
R: reel
M: 4/4
K: Dmajor
ABdB AF F/F/F|AFAd ~f3g|afef d~B3|dBAF EDFG|
ABdB AF F/F/F|AFAd ~f3g|afef d~B3|1 Adfe d3B:|2 Adfe dcde||
|:f2ed BAFA|defg a2fa|g2fg edBA|dBAF EDFG|
ABdB AF F/F/F|AFAd ~f3g|afef d~B3|1 Adfe dcde:|2 Adfe d3B||

